;FLAVOR:Marlin
;TIME:3602
;Filament used: 1.43188m
;Layer height: 0.2
;MINX:99.931
;MINY:109.945
;MINZ:0.2
;MAXX:135.069
;MAXY:138.311
;MAXZ:61
;Generated with Cura_SteamEngine 4.11.0
M140 S50
M105
M190 S50
M104 S200
M105
M109 S200
M82 ;absolute extrusion mode
; Ender 3 Custom Start G-code
G92 E0 ; Reset Extruder
G28 ; Home all axes
G1 Z2.0 F3000 ; Move Z Axis up little to prevent scratching of Heat Bed
G1 X0.1 Y20 Z0.3 F5000.0 ; Move to start position
G1 X0.1 Y200.0 Z0.3 F1500.0 E15 ; Draw the first line
G1 X0.4 Y200.0 Z0.3 F5000.0 ; Move to side a little
G1 X0.4 Y20 Z0.3 F1500.0 E30 ; Draw the second line
G92 E0 ; Reset Extruder
G1 Z2.0 F3000 ; Move Z Axis up little to prevent scratching of Heat Bed
G1 X5 Y20 Z0.3 F5000.0 ; Move over to prevent blob squish
G92 E0
G92 E0
G1 F2700 E-5
;LAYER_COUNT:305
;LAYER:0
M107
G0 F6000 X103.273 Y113.185 Z0.2
;TYPE:SKIRT
G1 F2700 E0
G1 F1200 X103.964 Y112.551 E0.03119
G1 X104.706 Y111.977 E0.06239
G1 X105.495 Y111.47 E0.09359
G1 X106.323 Y111.031 E0.12476
G1 X107.187 Y110.664 E0.15598
G1 X108.078 Y110.372 E0.18716
G1 X108.991 Y110.158 E0.21835
G1 X109.919 Y110.021 E0.24955
G1 X110.682 Y109.969 E0.27499
G1 X111.066 Y109.959 E0.28777
G1 X111.603 Y109.953 E0.30563
G1 X115.402 Y109.951 E0.43198
G1 X118.649 Y109.953 E0.53998
G1 X118.747 Y109.947 E0.54324
G1 X119.59 Y109.945 E0.57128
G1 X119.787 Y109.953 E0.57784
G1 X123.389 Y109.954 E0.69764
G1 X124.092 Y109.964 E0.72103
G1 X125.029 Y110.017 E0.75224
G1 X125.957 Y110.15 E0.78342
G1 X126.871 Y110.362 E0.81463
G1 X127.763 Y110.65 E0.84581
G1 X128.628 Y111.014 E0.87702
G1 X129.458 Y111.45 E0.9082
G1 X130.249 Y111.955 E0.93942
G1 X130.993 Y112.525 E0.97059
G1 X131.714 Y113.185 E1.0031
G1 X131.837 Y113.308 E1.00888
G1 X132.471 Y113.999 E1.04008
G1 X133.045 Y114.741 E1.07128
G1 X133.552 Y115.53 E1.10247
G1 X133.991 Y116.358 E1.13364
G1 X134.358 Y117.222 E1.16486
G1 X134.65 Y118.113 E1.19605
G1 X134.864 Y119.026 E1.22724
G1 X135.001 Y119.954 E1.25844
G1 X135.05 Y120.646 E1.28151
G1 X135.063 Y121.072 E1.29569
G1 X135.069 Y121.605 E1.31342
G1 X135.069 Y126.592 E1.47928
G1 X135.059 Y127.331 E1.50387
G1 X135.006 Y128.267 E1.53505
G1 X134.874 Y129.196 E1.56626
G1 X134.663 Y130.11 E1.59745
G1 X134.375 Y131.002 E1.62863
G1 X134.012 Y131.867 E1.65983
G1 X133.577 Y132.698 E1.69103
G1 X133.073 Y133.488 E1.7222
G1 X132.503 Y134.233 E1.7534
G1 X131.803 Y134.995 E1.78781
G1 X131.691 Y135.106 E1.79305
G1 X130.998 Y135.737 E1.82423
G1 X130.253 Y136.307 E1.85543
G1 X129.462 Y136.811 E1.88662
G1 X128.631 Y137.246 E1.91782
G1 X127.766 Y137.609 E1.94902
G1 X126.873 Y137.897 E1.98023
G1 X125.96 Y138.108 E2.01139
G1 X125.031 Y138.24 E2.0426
G1 X124.319 Y138.287 E2.06634
G1 X123.934 Y138.297 E2.07915
G1 X123.391 Y138.303 E2.09721
G1 X116.351 Y138.303 E2.33136
G1 X116.253 Y138.309 E2.33462
G1 X115.41 Y138.311 E2.36266
G1 X115.213 Y138.303 E2.36922
G1 X111.611 Y138.302 E2.48902
G1 X110.908 Y138.292 E2.51241
G1 X109.971 Y138.239 E2.54362
G1 X109.043 Y138.106 E2.5748
G1 X108.129 Y137.894 E2.60601
G1 X107.237 Y137.606 E2.63719
G1 X106.372 Y137.242 E2.6684
G1 X105.542 Y136.806 E2.69958
G1 X104.751 Y136.301 E2.7308
G1 X104.007 Y135.731 E2.76197
G1 X103.254 Y135.04 E2.79596
G1 X103.131 Y134.916 E2.80177
G1 X102.5 Y134.222 E2.83297
G1 X101.93 Y133.478 E2.86414
G1 X101.425 Y132.687 E2.89535
G1 X100.99 Y131.856 E2.92655
G1 X100.627 Y130.992 E2.95772
G1 X100.338 Y130.099 E2.98894
G1 X100.127 Y129.185 E3.02014
G1 X99.995 Y128.257 E3.05131
G1 X99.948 Y127.566 E3.07435
G1 X99.935 Y127.107 E3.08962
G1 X99.931 Y126.583 E3.10705
G1 X99.931 Y121.605 E3.27262
G1 X99.941 Y120.915 E3.29557
G1 X99.995 Y119.978 E3.32679
G1 X100.128 Y119.05 E3.35797
G1 X100.34 Y118.136 E3.38918
G1 X100.628 Y117.244 E3.42035
G1 X100.992 Y116.379 E3.45156
G1 X101.428 Y115.549 E3.48275
G1 X101.933 Y114.759 E3.51393
G1 X102.504 Y114.015 E3.54513
G1 X103.162 Y113.296 E3.57754
G1 X103.273 Y113.185 E3.58276
G0 F6000 X103.556 Y113.468
G1 F1200 X104.234 Y112.846 E3.61337
G1 X104.964 Y112.285 E3.64399
G1 X105.74 Y111.789 E3.67462
G1 X106.556 Y111.363 E3.70524
G1 X107.406 Y111.009 E3.73586
G1 X108.284 Y110.731 E3.76649
G1 X109.182 Y110.529 E3.79711
G1 X110.095 Y110.406 E3.82775
G1 X110.695 Y110.369 E3.84774
G1 X111.07 Y110.359 E3.86022
G1 X111.603 Y110.353 E3.87795
G1 X115.401 Y110.351 E4.00427
G1 X118.624 Y110.353 E4.11147
G1 X118.748 Y110.347 E4.1156
G1 X119.591 Y110.345 E4.14363
G1 X119.785 Y110.353 E4.15009
G1 X123.384 Y110.354 E4.26979
G1 X124.087 Y110.364 E4.29318
G1 X125.006 Y110.417 E4.3238
G1 X125.917 Y110.55 E4.35442
G1 X126.813 Y110.761 E4.38503
G1 X127.687 Y111.049 E4.41564
G1 X128.534 Y111.412 E4.44629
G1 X129.345 Y111.847 E4.4769
G1 X130.116 Y112.351 E4.50754
G1 X130.84 Y112.919 E4.53814
G1 X131.431 Y113.468 E4.56497
G1 X131.554 Y113.591 E4.57076
G1 X132.176 Y114.269 E4.60136
G1 X132.737 Y114.999 E4.63198
G1 X133.233 Y115.775 E4.66261
G1 X133.659 Y116.591 E4.69323
G1 X134.013 Y117.441 E4.72385
G1 X134.291 Y118.319 E4.75448
G1 X134.493 Y119.217 E4.7851
G1 X134.616 Y120.13 E4.81574
G1 X134.651 Y120.662 E4.83347
G1 X134.663 Y121.077 E4.84728
G1 X134.669 Y121.605 E4.86484
G1 X134.669 Y126.586 E5.03051
G1 X134.659 Y127.325 E5.05509
G1 X134.607 Y128.245 E5.08574
G1 X134.475 Y129.156 E5.11636
G1 X134.264 Y130.052 E5.14697
G1 X133.977 Y130.927 E5.1776
G1 X133.614 Y131.773 E5.20822
G1 X133.18 Y132.585 E5.23884
G1 X132.677 Y133.356 E5.26946
G1 X132.108 Y134.08 E5.30009
G1 X131.522 Y134.711 E5.32873
G1 X131.41 Y134.822 E5.33398
G1 X130.728 Y135.441 E5.36461
G1 X129.996 Y135.999 E5.39522
G1 X129.217 Y136.49 E5.42585
G1 X128.399 Y136.913 E5.45648
G1 X127.548 Y137.263 E5.48708
G1 X126.669 Y137.538 E5.51772
G1 X125.77 Y137.735 E5.54833
G1 X124.857 Y137.854 E5.57895
G1 X124.306 Y137.887 E5.59731
G1 X123.93 Y137.897 E5.60982
G1 X123.391 Y137.903 E5.62775
G1 X116.376 Y137.903 E5.86107
G1 X116.252 Y137.909 E5.8652
G1 X115.409 Y137.911 E5.89324
G1 X115.215 Y137.903 E5.89969
G1 X111.616 Y137.902 E6.0194
G1 X110.913 Y137.892 E6.04278
G1 X109.994 Y137.839 E6.0734
G1 X109.083 Y137.706 E6.10402
G1 X108.187 Y137.495 E6.13463
G1 X107.313 Y137.207 E6.16524
G1 X106.466 Y136.844 E6.19589
G1 X105.655 Y136.409 E6.2265
G1 X104.884 Y135.905 E6.25714
G1 X104.16 Y135.337 E6.28774
G1 X103.538 Y134.758 E6.31601
G1 X103.415 Y134.634 E6.32182
G1 X102.796 Y133.953 E6.35243
G1 X102.238 Y133.22 E6.38307
G1 X101.746 Y132.442 E6.41368
G1 X101.323 Y131.625 E6.44428
G1 X100.973 Y130.773 E6.47492
G1 X100.697 Y129.895 E6.50553
G1 X100.5 Y128.996 E6.53614
G1 X100.38 Y128.083 E6.56677
G1 X100.348 Y127.552 E6.58446
G1 X100.335 Y127.103 E6.5994
G1 X100.331 Y126.583 E6.61669
G1 X100.331 Y121.61 E6.7821
G1 X100.341 Y120.92 E6.80505
G1 X100.394 Y120.001 E6.83567
G1 X100.527 Y119.09 E6.86629
G1 X100.739 Y118.194 E6.89691
G1 X101.027 Y117.32 E6.92752
G1 X101.39 Y116.474 E6.95814
G1 X101.825 Y115.663 E6.98875
G1 X102.329 Y114.892 E7.01938
G1 X102.898 Y114.168 E7.05001
G1 X103.445 Y113.579 E7.07675
G1 X103.556 Y113.468 E7.08197
G0 F6000 X103.839 Y113.751
G1 F1200 X104.505 Y113.141 E7.112
G1 X105.222 Y112.592 E7.14204
G1 X105.986 Y112.11 E7.17209
G1 X106.789 Y111.696 E7.20213
G1 X107.625 Y111.356 E7.23215
G1 X108.488 Y111.09 E7.26219
G1 X109.371 Y110.902 E7.29221
G1 X110.709 Y110.769 E7.33694
G1 X111.075 Y110.759 E7.34911
G1 X111.604 Y110.753 E7.36671
G1 X115.4 Y110.751 E7.49296
G1 X118.574 Y110.753 E7.59853
G1 X118.749 Y110.747 E7.60436
G1 X119.592 Y110.745 E7.63239
G1 X119.782 Y110.753 E7.63872
G1 X123.378 Y110.754 E7.75832
G1 X124.081 Y110.764 E7.78171
G1 X124.983 Y110.817 E7.81176
G1 X125.876 Y110.949 E7.84178
G1 X126.754 Y111.16 E7.87182
G1 X127.61 Y111.448 E7.90186
G1 X128.437 Y111.81 E7.93188
G1 X129.229 Y112.244 E7.96192
G1 X129.98 Y112.746 E7.99196
G1 X130.683 Y113.313 E8.022
G1 X131.148 Y113.751 E8.04325
G1 X131.271 Y113.874 E8.04904
G1 X131.881 Y114.54 E8.07907
G1 X132.43 Y115.257 E8.10911
G1 X132.912 Y116.021 E8.13916
G1 X133.326 Y116.824 E8.1692
G1 X133.666 Y117.66 E8.19922
G1 X133.932 Y118.523 E8.22926
G1 X134.12 Y119.406 E8.25928
G1 X134.251 Y120.678 E8.30181
G1 X134.263 Y121.082 E8.31526
G1 X134.269 Y121.605 E8.33265
G1 X134.269 Y126.581 E8.49816
G1 X134.259 Y127.32 E8.52274
G1 X134.207 Y128.222 E8.55279
G1 X134.075 Y129.115 E8.58281
G1 X133.865 Y129.993 E8.61284
G1 X133.578 Y130.85 E8.6429
G1 X133.216 Y131.677 E8.67292
G1 X132.783 Y132.469 E8.70295
G1 X132.281 Y133.22 E8.73299
G1 X131.714 Y133.924 E8.76306
G1 X131.24 Y134.427 E8.78604
G1 X131.128 Y134.538 E8.79129
G1 X130.459 Y135.144 E8.82131
G1 X129.739 Y135.69 E8.85137
G1 X128.974 Y136.169 E8.88139
G1 X128.169 Y136.579 E8.91143
G1 X127.331 Y136.916 E8.94147
G1 X126.467 Y137.177 E8.97149
G1 X125.582 Y137.361 E9.00156
G1 X124.292 Y137.487 E9.04467
G1 X123.925 Y137.497 E9.05688
G1 X123.391 Y137.503 E9.07464
G1 X116.426 Y137.503 E9.3063
G1 X116.251 Y137.509 E9.31212
G1 X115.408 Y137.511 E9.34016
G1 X115.218 Y137.503 E9.34648
G1 X111.622 Y137.502 E9.46609
G1 X110.919 Y137.492 E9.48947
G1 X110.017 Y137.439 E9.51952
G1 X109.124 Y137.307 E9.54955
G1 X108.246 Y137.096 E9.57958
G1 X107.39 Y136.808 E9.60962
G1 X106.563 Y136.446 E9.63965
G1 X105.771 Y136.012 E9.66969
G1 X105.02 Y135.51 E9.69973
G1 X104.317 Y134.943 E9.72977
G1 X103.822 Y134.476 E9.7524
G1 X103.699 Y134.352 E9.75821
G1 X103.092 Y133.684 E9.78823
G1 X102.547 Y132.964 E9.81827
G1 X102.067 Y132.199 E9.84831
G1 X101.657 Y131.394 E9.87835
G1 X101.32 Y130.556 E9.90839
G1 X101.058 Y129.692 E9.93842
G1 X100.874 Y128.808 E9.96845
G1 X100.748 Y127.537 E10.01094
G1 X100.735 Y127.1 E10.02548
G1 X100.731 Y126.583 E10.04267
G1 X100.731 Y121.616 E10.20788
G1 X100.741 Y120.926 E10.23083
G1 X100.794 Y120.025 E10.26085
G1 X100.927 Y119.131 E10.29091
G1 X101.138 Y118.253 E10.32094
G1 X101.426 Y117.397 E10.35098
G1 X101.788 Y116.57 E10.38101
G1 X102.222 Y115.778 E10.41104
G1 X102.725 Y115.028 E10.44108
G1 X103.292 Y114.325 E10.47112
G1 X103.728 Y113.862 E10.49227
G1 X103.839 Y113.751 E10.49749
G0 F6000 X111.53 Y121.553
G1 F1200 X112.121 Y121.553 E10.51715
G1 X112.122 Y126.703 E10.68844
G1 X111.531 Y126.703 E10.7081
G1 X111.53 Y121.553 E10.87939
G0 F6000 X111.13 Y121.153
G1 F1200 X112.521 Y121.153 E10.92565
G1 X112.522 Y127.103 E11.12355
G1 X111.142 Y127.103 E11.16945
G1 X111.131 Y127.092 E11.16997
G1 X111.13 Y121.153 E11.3675
G1 F2700 E6.3675
G0 F6000 X112.068 Y120.3
G0 X122.931 Y120.3
G0 X122.943 Y121.152
G0 X122.478 Y121.153
G1 F2700 E11.3675
G1 F1200 X123.858 Y121.153 E11.4134
G1 X123.869 Y121.164 E11.41391
G1 X123.87 Y127.103 E11.61145
G1 X122.479 Y127.103 E11.65771
G1 X122.478 Y121.153 E11.85561
G0 F6000 X122.878 Y121.553
G1 F1200 X123.469 Y121.553 E11.87527
G1 X123.47 Y126.703 E12.04655
G1 X122.879 Y126.703 E12.06621
G1 X122.878 Y121.553 E12.2375
G0 F6000 X122.078 Y121.153
;TYPE:SUPPORT-INTERFACE
G1 F1200 X122.079 Y127.103 E12.4354
G1 X119.934 Y127.103 E12.50674
G1 X119.933 Y121.153 E12.70464
G1 X122.078 Y121.153 E12.77598
G1 F2700 E7.77598
G0 F6000 X122.078 Y120.288
G0 X116.069 Y120.292
G0 X115.891 Y120.489
G0 X115.066 Y121.153
G1 F2700 E12.77598
G1 F1200 X115.067 Y127.103 E12.97388
G1 X112.922 Y127.103 E13.04522
G1 X112.921 Y121.153 E13.24312
G1 X115.066 Y121.153 E13.31446
G0 F6000 X114.866 Y121.654
G1 F1200 X114.564 Y121.352 E13.32867
G0 F6000 X114.865 Y122.721
G1 F1200 X113.122 Y124.465 E13.41068
G0 F6000 X113.121 Y123.303
G1 F1200 X114.867 Y125.049 E13.49281
G0 F6000 X114.866 Y126.115
G1 F1200 X114.079 Y126.902 E13.52982
G0 F6000 X113.325 Y126.902
G1 F1200 X113.121 Y126.697 E13.53944
G1 F2700 E8.53944
G0 F6000 X112.057 Y126.698
G0 X112.069 Y127.956
G0 X122.932 Y127.956
G0 X122.943 Y124.241
G0 X120.133 Y124.242
G1 F2700 E13.53944
G1 F1200 X121.877 Y122.498 E13.62147
G0 F6000 X121.878 Y121.878
G1 F1200 X121.352 Y121.352 E13.64622
G0 F6000 X120.133 Y123.527
G1 F1200 X121.879 Y125.273 E13.72834
G0 F6000 X121.878 Y125.891
G1 F1200 X120.867 Y126.902 E13.7759
G1 F2700 E8.7759
;MESH:arm1.STL
G0 F6000 X118.36 Y126.889
G0 X118.174 Y126.703
;TYPE:WALL-INNER
G1 F2700 E13.7759
G1 F1200 X117.975 Y126.703 E13.78252
G1 X116.827 Y126.703 E13.8207
G1 X116.826 Y121.752 E13.98537
G1 X116.826 Y121.553 E13.99199
G1 X117.025 Y121.553 E13.99627
G1 X118.173 Y121.553 E14.03445
G1 X118.174 Y126.504 E14.19912
G1 X118.174 Y126.703 E14.20341
G0 F6000 X118.574 Y127.103
;TYPE:WALL-OUTER
G1 F1200 X116.427 Y127.103 E14.27482
G1 X116.426 Y121.153 E14.47271
G1 X118.573 Y121.153 E14.54412
G1 X118.574 Y127.103 E14.74202
G0 F6000 X118.304 Y126.833
G0 X118.064 Y126.313
G0 X117.784 Y126.313
;TYPE:SKIN
G1 F1200 X117.217 Y126.313 E14.76088
G1 X117.216 Y121.943 E14.90623
G1 X117.783 Y121.943 E14.92508
G1 X117.784 Y126.313 E15.07043
G0 F6000 X117.624 Y126.109
G1 F1200 X117.376 Y125.861 E15.0821
G0 F6000 X117.624 Y125.543
G1 F1200 X117.376 Y125.295 E15.09376
G0 F6000 X117.624 Y124.978
G1 F1200 X117.376 Y124.73 E15.10543
G0 F6000 X117.624 Y124.412
G1 F1200 X117.376 Y124.164 E15.11709
G0 F6000 X117.623 Y123.846
G1 F1200 X117.376 Y123.598 E15.12873
G0 F6000 X117.623 Y123.28
G1 F1200 X117.376 Y123.033 E15.14035
G0 F6000 X117.623 Y122.714
G1 F1200 X117.376 Y122.467 E15.15197
G0 F6000 X117.027 Y122.468
G1 F2700 E10.15197
;MESH:NONMESH
G0 F300 X117.027 Y122.468 Z0.4
G0 F6000 X116.936 Y122.467
G0 X116.64 Y121.367
G0 X115.891 Y120.489
G0 X112.068 Y120.3
G0 X111.13 Y121.153
;TIME_ELAPSED:33.302667
;LAYER:1
M106 S85
;TYPE:SUPPORT
G1 F2700 E15.15197
G1 F962.2 X112.195 Y121.153 E15.18739
G1 X112.196 Y127.103 E15.38529
G1 X111.141 Y127.103 E15.42038
G1 X111.131 Y127.093 E15.42085
G1 X111.13 Y121.153 E15.61841
G0 F7500 X111.41 Y121.433
G1 F962.2 X111.915 Y121.433 E15.63521
G1 X111.916 Y126.823 E15.81448
G1 X111.411 Y126.823 E15.83128
G1 X111.41 Y121.433 E16.01055
G1 F2700 E11.01055
G0 F7500 X111.41 Y120.288
G0 X122.804 Y120.288
G0 X122.804 Y121.153
G1 F2700 E16.01055
G1 F962.2 X123.859 Y121.153 E16.04564
G1 X123.869 Y121.163 E16.04611
G1 X123.87 Y127.103 E16.24368
G1 X122.805 Y127.103 E16.2791
G1 X122.804 Y121.153 E16.477
G0 F7500 X123.084 Y121.433
G1 F962.2 X123.589 Y121.433 E16.49379
G1 X123.59 Y126.823 E16.67307
G1 X123.085 Y126.823 E16.68986
G1 X123.084 Y121.433 E16.86913
G0 F7500 X122.603 Y121.772
;TYPE:SUPPORT-INTERFACE
G1 F962.2 X120.534 Y123.841 E16.96645
G0 F7500 X120.533 Y123.927
G1 F962.2 X122.605 Y125.999 E17.06391
G0 F7500 X122.603 Y125.166
G1 F962.2 X120.534 Y127.236 E17.16126
G1 F2700 E12.16126
G0 F7500 X120.534 Y127.968
G0 X124.227 Y127.964
G0 X124.731 Y127.46
G0 X124.734 Y122.602
G0 X122.603 Y122.603
G1 F2700 E17.16126
G1 F962.2 X120.952 Y120.952 E17.23891
G1 F2700 E12.23891
G0 F7500 X120.952 Y120.288
G0 X115.105 Y120.324
G0 X114.466 Y121.254
G1 F2700 E17.23891
G1 F962.2 X114.164 Y120.952 E17.25312
G0 F7500 X113.241 Y120.952
G1 F962.2 X112.395 Y121.798 E17.29291
G0 F7500 X112.394 Y122.576
G1 F962.2 X114.467 Y124.649 E17.39042
G0 F7500 X114.465 Y123.122
G1 F962.2 X112.396 Y125.191 E17.48774
G0 F7500 X112.395 Y125.971
G1 F962.2 X113.725 Y127.301 E17.5503
G0 F7500 X113.679 Y127.302
G1 F962.2 X114.466 Y126.515 E17.58732
G1 F2700 E12.58732
;MESH:arm1.STL
G0 F7500 X115.667 Y126.515
G0 X119.134 Y126.703
;TYPE:WALL-INNER
G1 F2700 E17.58732
G1 F962.2 X118.935 Y126.703 E17.59394
G1 X115.867 Y126.703 E17.69598
G1 X115.866 Y121.752 E17.86065
G1 X115.866 Y121.553 E17.86727
G1 X116.065 Y121.553 E17.87155
G1 X119.133 Y121.553 E17.97359
G1 X119.134 Y126.504 E18.13826
G1 X119.134 Y126.703 E18.14255
G0 F7500 X119.534 Y127.103
;TYPE:WALL-OUTER
G1 F962.2 X115.467 Y127.103 E18.27781
G1 X115.466 Y121.153 E18.47571
G1 X119.533 Y121.153 E18.61098
G1 X119.534 Y127.103 E18.80888
G0 F7500 X119.264 Y126.833
G0 X119.024 Y126.313
G0 X118.744 Y126.313
;TYPE:SKIN
